; generated by Slic3r 0.7.1 on 2014-01-11 at 19:18:41

; layer_height = 0.26
; perimeters = 1
; solid_layers = 2
; fill_density = 1
; nozzle_diameter = 0.7
; filament_diameter = 2.8
; extrusion_multiplier = 1
; perimeter_speed = 20
; infill_speed = 30
; travel_speed = 120
; extrusion_width_ratio = 0
; scale = 2
; single wall width = 0.98mm

G28 ; home all axes
G90 ; use absolute coordinates
G21 ; set units to millimeters
G92 E0 ; reset extrusion distance
M82 ; use absolute distances for extrusion
G1 Z0.260 F7200.000
G1 X101.160 Y96.340
G1
G1 X101.340 Y96.160 F840.000 E0.00993
G1 X101.720 Y95.820 E0.02983
G1 X102.340 Y95.380 E0.05950
G1 X102.560 Y95.250 E0.06947
G1 X103.020 Y95.020 E0.08954
G1 X103.490 Y94.830 E0.10933
G1 X103.980 Y94.680 E0.12932
G1 X104.230 Y94.620 E0.13936
G1 X104.980 Y94.510 E0.16894
G1 X105.490 Y94.490 E0.18886
G1 X195.020 Y94.510 E3.68270
G1 X195.770 Y94.620 E3.71228
G1 X196.270 Y94.750 E3.73244
G1 X196.750 Y94.920 E3.75232
G1 X197.210 Y95.130 E3.77205
G1 X197.440 Y95.250 E3.78217
G1 X197.660 Y95.380 E3.79215
G1 X198.280 Y95.820 E3.82181
G1 X198.660 Y96.160 E3.84171
G1 X198.840 Y96.340 E3.85165
G1 X199.180 Y96.720 E3.87154
G1 X199.620 Y97.340 E3.90121
G1 X199.750 Y97.560 E3.91119
G1 X199.980 Y98.020 E3.93126
G1 X200.170 Y98.490 E3.95104
G1 X200.320 Y98.980 E3.97104
G1 X200.380 Y99.230 E3.98107
G1 X200.490 Y99.980 E4.01065
G1 X200.490 Y110.020 E4.40246
G1 X200.420 Y110.540 E4.42293
G1 X200.310 Y111.040 E4.44291
G1 X200.160 Y111.530 E4.46291
G1 X199.970 Y112.010 E4.48305
G1 X199.730 Y112.470 E4.50330
G1 X199.600 Y112.690 E4.51327
G1 X199.310 Y113.110 E4.53319
G1 X198.810 Y113.700 E4.56337
G1 X198.230 Y114.220 E4.59377
G1 X197.810 Y114.520 E4.61391
G1 X147.360 Y144.790 E6.90988
G1 X146.880 Y145.020 E6.93065
G1 X146.370 Y145.210 E6.95189
G1 X145.850 Y145.360 E6.97301
G1 X145.320 Y145.460 E6.99406
G1 X145.050 Y145.490 E7.00466
G1 X144.510 Y145.510 E7.02575
G1 X104.980 Y145.490 E8.56838
G1 X104.230 Y145.380 E8.59796
G1 X103.730 Y145.250 E8.61812
G1 X103.250 Y145.080 E8.63799
G1 X102.790 Y144.870 E8.65772
G1 X102.560 Y144.750 E8.66785
G1 X102.340 Y144.620 E8.67782
G1 X101.720 Y144.180 E8.70749
G1 X101.340 Y143.840 E8.72739
G1 X101.160 Y143.660 E8.73732
G1 X100.820 Y143.280 E8.75722
G1 X100.380 Y142.660 E8.78689
G1 X100.250 Y142.440 E8.79686
G1 X100.020 Y141.980 E8.81693
G1 X99.830 Y141.510 E8.83671
G1 X99.680 Y141.020 E8.85671
G1 X99.620 Y140.770 E8.86674
G1 X99.510 Y140.020 E8.89633
G1 X99.510 Y99.980 E10.45886
G1 X99.620 Y99.230 E10.48844
G1 X99.750 Y98.730 E10.50860
G1 X99.920 Y98.250 E10.52847
G1 X100.130 Y97.790 E10.54821
G1 X100.250 Y97.560 E10.55833
G1 X100.380 Y97.340 E10.56830
G1 X100.820 Y96.720 E10.59797
G1 X101.062 Y96.450 E10.61213
G1 X105.490 Y100.490 F7200.000
G1 X194.510 Y100.490 F840.000 E14.08607
G1 X194.510 Y109.510 E14.43807
G1 X144.510 Y109.510 E16.38929
G1 X144.510 Y139.510 E17.56002
G1 X105.490 Y139.510 E19.08274
G1 X105.490 Y130.490 E19.43474
G1 X135.490 Y130.490 E20.60547
G1 X135.490 Y109.510 E21.42420
G1 X105.490 Y109.510 E22.59493
G1 X105.490 Y100.637 E22.94119
G1 X140.686 Y105.686 F7200.000
G1 X140.686 Y135.686 F1260.000 E24.12513
G1 X109.314 Y135.686 E25.36322
G1 X109.314 Y134.314 E25.41736
G1 X139.314 Y134.314 E26.60130
G1 X139.314 Y105.686 E27.73110
G1 X109.314 Y105.686 E28.91504
G1 X109.314 Y104.314 E28.96919
G1 X190.686 Y104.314 E32.18050
G1 X190.686 Y105.686 E32.23465
G1 X140.833 Y105.686 E34.20208
G1 X141.643 Y106.643 F7200.000
G1 X141.643 Y136.643 F1260.000 E35.38602
G1 X108.357 Y136.643 E36.69967
G1 X108.357 Y133.357 E36.82937
G1 X138.357 Y133.357 E38.01331
G1 X138.357 Y106.643 E39.06755
G1 X108.357 Y106.643 E40.25149
G1 X108.357 Y103.357 E40.38119
G1 X191.643 Y103.357 E43.66807
G1 X191.643 Y106.643 E43.79778
G1 X141.790 Y106.643 E45.76521
G1 X142.601 Y107.601 F7200.000
G1 X142.601 Y137.601 F1260.000 E46.94915
G1 X107.399 Y137.601 E48.33836
G1 X107.399 Y132.399 E48.54362
G1 X137.399 Y132.399 E49.72756
G1 X137.399 Y107.601 E50.70624
G1 X107.399 Y107.601 E51.89018
G1 X107.399 Y102.399 E52.09545
G1 X192.601 Y102.399 E55.45789
G1 X192.601 Y107.601 E55.66315
G1 X142.748 Y107.601 E57.63058
G1 X143.558 Y108.558 F7200.000
G1 X143.558 Y138.558 F1260.000 E58.81452
G1 X106.442 Y138.558 E60.27929
G1 X106.442 Y131.442 E60.56011
G1 X136.442 Y131.442 E61.74406
G1 X136.442 Y108.558 E62.64717
G1 X106.442 Y108.558 E63.83111
G1 X106.442 Y101.442 E64.11194
G1 X193.558 Y101.442 E67.54994
G1 X193.558 Y108.558 E67.83076
G1 X143.705 Y108.558 E69.79820
M104 S210 ; set temperature
G1 Z0.520 F7200.000
G1 X144.510 Y109.510
G1 X144.510 Y139.510 F1200.000 E70.96893
G1 X105.490 Y139.510 E72.49165
G1 X105.490 Y130.490 E72.84365
G1 X135.490 Y130.490 E74.01438
G1 X135.490 Y109.510 E74.83311
G1 X105.490 Y109.510 E76.00384
G1 X105.490 Y100.490 E76.35584
G1 X194.510 Y100.490 E79.82978
G1 X194.510 Y109.510 E80.18178
G1 X144.657 Y109.510 E82.12726
G1 X144.711 Y108.950 F7200.000
G1 X144.711 Y101.050 F1800.000 E82.44196
G1 X145.672 Y101.050 F7200.000
G1 X145.672 Y108.950 F1800.000 E82.75665
G1 X146.634 Y108.950 F7200.000
G1 X146.634 Y101.050 F1800.000 E83.07135
G1 X147.596 Y101.050 F7200.000
G1 X147.596 Y108.950 F1800.000 E83.38605
G1 X148.557 Y108.950 F7200.000
G1 X148.557 Y101.050 F1800.000 E83.70074
G1 X149.519 Y101.050 F7200.000
G1 X149.519 Y108.950 F1800.000 E84.01544
G1 X150.481 Y108.950 F7200.000
G1 X150.481 Y101.050 F1800.000 E84.33014
G1 X151.443 Y101.050 F7200.000
G1 X151.443 Y108.950 F1800.000 E84.64484
G1 X152.404 Y108.950 F7200.000
G1 X152.404 Y101.050 F1800.000 E84.95953
G1 X153.366 Y101.050 F7200.000
G1 X153.366 Y108.950 F1800.000 E85.27423
G1 X154.328 Y108.950 F7200.000
G1 X154.328 Y101.050 F1800.000 E85.58893
G1 X155.289 Y101.050 F7200.000
G1 X155.289 Y108.950 F1800.000 E85.90363
G1 X156.251 Y108.950 F7200.000
G1 X156.251 Y101.050 F1800.000 E86.21832
G1 X157.213 Y101.050 F7200.000
G1 X157.213 Y108.950 F1800.000 E86.53302
G1 X158.175 Y108.950 F7200.000
G1 X158.175 Y101.050 F1800.000 E86.84772
G1 X159.136 Y101.050 F7200.000
G1 X159.136 Y108.950 F1800.000 E87.16241
G1 X160.098 Y108.950 F7200.000
G1 X160.098 Y101.050 F1800.000 E87.47711
G1 X161.060 Y101.050 F7200.000
G1 X161.060 Y108.950 F1800.000 E87.79181
G1 X162.021 Y108.950 F7200.000
G1 X162.021 Y101.050 F1800.000 E88.10651
G1 X162.983 Y101.050 F7200.000
G1 X162.983 Y108.950 F1800.000 E88.42120
G1 X163.945 Y108.950 F7200.000
G1 X163.945 Y101.050 F1800.000 E88.73590
G1 X164.907 Y101.050 F7200.000
G1 X164.907 Y108.950 F1800.000 E89.05060
G1 X165.868 Y108.950 F7200.000
G1 X165.868 Y101.050 F1800.000 E89.36529
G1 X166.830 Y101.050 F7200.000
G1 X166.830 Y108.950 F1800.000 E89.67999
G1 X167.792 Y108.950 F7200.000
G1 X167.792 Y101.050 F1800.000 E89.99469
G1 X168.753 Y101.050 F7200.000
G1 X168.753 Y108.950 F1800.000 E90.30939
G1 X169.715 Y108.950 F7200.000
G1 X169.715 Y101.050 F1800.000 E90.62408
G1 X170.677 Y101.050 F7200.000
G1 X170.677 Y108.950 F1800.000 E90.93878
G1 X171.639 Y108.950 F7200.000
G1 X171.639 Y101.050 F1800.000 E91.25348
G1 X172.600 Y101.050 F7200.000
G1 X172.600 Y108.950 F1800.000 E91.56817
G1 X173.562 Y108.950 F7200.000
G1 X173.562 Y101.050 F1800.000 E91.88287
G1 X174.524 Y101.050 F7200.000
G1 X174.524 Y108.950 F1800.000 E92.19757
G1 X175.485 Y108.950 F7200.000
G1 X175.485 Y101.050 F1800.000 E92.51227
G1 X176.447 Y101.050 F7200.000
G1 X176.447 Y108.950 F1800.000 E92.82696
G1 X177.409 Y108.950 F7200.000
G1 X177.409 Y101.050 F1800.000 E93.14166
G1 X178.371 Y101.050 F7200.000
G1 X178.371 Y108.950 F1800.000 E93.45636
G1 X179.332 Y108.950 F7200.000
G1 X179.332 Y101.050 F1800.000 E93.77105
G1 X180.294 Y101.050 F7200.000
G1 X180.294 Y108.950 F1800.000 E94.08575
G1 X181.256 Y108.950 F7200.000
G1 X181.256 Y101.050 F1800.000 E94.40045
G1 X182.217 Y101.050 F7200.000
G1 X182.217 Y108.950 F1800.000 E94.71515
G1 X183.179 Y108.950 F7200.000
G1 X183.179 Y101.050 F1800.000 E95.02984
G1 X184.141 Y101.050 F7200.000
G1 X184.141 Y108.950 F1800.000 E95.34454
G1 X185.103 Y108.950 F7200.000
G1 X185.103 Y101.050 F1800.000 E95.65924
G1 X186.064 Y101.050 F7200.000
G1 X186.064 Y108.950 F1800.000 E95.97393
G1 X187.026 Y108.950 F7200.000
G1 X187.026 Y101.050 F1800.000 E96.28863
G1 X187.988 Y101.050 F7200.000
G1 X187.988 Y108.950 F1800.000 E96.60333
G1 X188.949 Y108.950 F7200.000
G1 X188.949 Y101.050 F1800.000 E96.91803
G1 X189.911 Y101.050 F7200.000
G1 X189.911 Y108.950 F1800.000 E97.23272
G1 X190.873 Y108.950 F7200.000
G1 X190.873 Y101.050 F1800.000 E97.54742
G1 X191.834 Y101.050 F7200.000
G1 X191.834 Y108.950 F1800.000 E97.86212
G1 X192.796 Y108.950 F7200.000
G1 X192.796 Y101.050 F1800.000 E98.17681
G1 X143.749 Y101.050 F7200.000
G1 X143.749 Y108.950 F1800.000 E98.49151
G1 X136.055 Y108.950 F7200.000
G1 X136.055 Y101.050 F1800.000 E98.80621
G1 X137.017 Y101.050 F7200.000
G1 X137.017 Y138.950 F1800.000 E100.31598
G1 X137.979 Y138.950 F7200.000
G1 X137.979 Y101.050 F1800.000 E101.82576
G1 X138.940 Y101.050 F7200.000
G1 X138.940 Y138.950 F1800.000 E103.33553
G1 X139.902 Y138.950 F7200.000
G1 X139.902 Y101.050 F1800.000 E104.84531
G1 X140.864 Y101.050 F7200.000
G1 X140.864 Y138.950 F1800.000 E106.35508
G1 X141.825 Y138.950 F7200.000
G1 X141.825 Y101.050 F1800.000 E107.86486
G1 X142.787 Y101.050 F7200.000
G1 X142.787 Y138.950 F1800.000 E109.37463
G1 X136.055 Y138.950 F7200.000
G1 X136.055 Y131.050 F1800.000 E109.68933
G1 X135.093 Y131.050 F7200.000
G1 X135.093 Y138.950 F1800.000 E110.00403
G1 X134.132 Y138.950 F7200.000
G1 X134.132 Y131.050 F1800.000 E110.31872
G1 X133.170 Y131.050 F7200.000
G1 X133.170 Y138.950 F1800.000 E110.63342
G1 X132.208 Y138.950 F7200.000
G1 X132.208 Y131.050 F1800.000 E110.94812
G1 X131.247 Y131.050 F7200.000
G1 X131.247 Y138.950 F1800.000 E111.26281
G1 X130.285 Y138.950 F7200.000
G1 X130.285 Y131.050 F1800.000 E111.57751
G1 X129.323 Y131.050 F7200.000
G1 X129.323 Y138.950 F1800.000 E111.89221
G1 X128.361 Y138.950 F7200.000
G1 X128.361 Y131.050 F1800.000 E112.20691
G1 X127.400 Y131.050 F7200.000
G1 X127.400 Y138.950 F1800.000 E112.52160
G1 X126.438 Y138.950 F7200.000
G1 X126.438 Y131.050 F1800.000 E112.83630
G1 X125.476 Y131.050 F7200.000
G1 X125.476 Y138.950 F1800.000 E113.15100
G1 X124.515 Y138.950 F7200.000
G1 X124.515 Y131.050 F1800.000 E113.46569
G1 X123.553 Y131.050 F7200.000
G1 X123.553 Y138.950 F1800.000 E113.78039
G1 X122.591 Y138.950 F7200.000
G1 X122.591 Y131.050 F1800.000 E114.09509
G1 X121.629 Y131.050 F7200.000
G1 X121.629 Y138.950 F1800.000 E114.40979
G1 X120.668 Y138.950 F7200.000
G1 X120.668 Y131.050 F1800.000 E114.72448
G1 X119.706 Y131.050 F7200.000
G1 X119.706 Y138.950 F1800.000 E115.03918
G1 X118.744 Y138.950 F7200.000
G1 X118.744 Y131.050 F1800.000 E115.35388
G1 X117.783 Y131.050 F7200.000
G1 X117.783 Y138.950 F1800.000 E115.66857
G1 X116.821 Y138.950 F7200.000
G1 X116.821 Y131.050 F1800.000 E115.98327
G1 X115.859 Y131.050 F7200.000
G1 X115.859 Y138.950 F1800.000 E116.29797
G1 X114.897 Y138.950 F7200.000
G1 X114.897 Y131.050 F1800.000 E116.61267
G1 X113.936 Y131.050 F7200.000
G1 X113.936 Y138.950 F1800.000 E116.92736
G1 X112.974 Y138.950 F7200.000
G1 X112.974 Y131.050 F1800.000 E117.24206
G1 X112.012 Y131.050 F7200.000
G1 X112.012 Y138.950 F1800.000 E117.55676
G1 X111.051 Y138.950 F7200.000
G1 X111.051 Y131.050 F1800.000 E117.87145
G1 X110.089 Y131.050 F7200.000
G1 X110.089 Y138.950 F1800.000 E118.18615
G1 X109.127 Y138.950 F7200.000
G1 X109.127 Y131.050 F1800.000 E118.50085
G1 X108.166 Y131.050 F7200.000
G1 X108.166 Y138.950 F1800.000 E118.81555
G1 X107.204 Y138.950 F7200.000
G1 X107.204 Y131.050 F1800.000 E119.13024
G1 X107.204 Y108.950 F7200.000
G1 X107.204 Y101.050 F1800.000 E119.44494
G1 X108.166 Y101.050 F7200.000
G1 X108.166 Y108.950 F1800.000 E119.75964
G1 X109.127 Y108.950 F7200.000
G1 X109.127 Y101.050 F1800.000 E120.07434
G1 X110.089 Y101.050 F7200.000
G1 X110.089 Y108.950 F1800.000 E120.38903
G1 X111.051 Y108.950 F7200.000
G1 X111.051 Y101.050 F1800.000 E120.70373
G1 X112.012 Y101.050 F7200.000
G1 X112.012 Y108.950 F1800.000 E121.01843
G1 X112.974 Y108.950 F7200.000
G1 X112.974 Y101.050 F1800.000 E121.33312
G1 X113.936 Y101.050 F7200.000
G1 X113.936 Y108.950 F1800.000 E121.64782
G1 X114.897 Y108.950 F7200.000
G1 X114.897 Y101.050 F1800.000 E121.96252
G1 X115.859 Y101.050 F7200.000
G1 X115.859 Y108.950 F1800.000 E122.27722
G1 X116.821 Y108.950 F7200.000
G1 X116.821 Y101.050 F1800.000 E122.59191
G1 X117.783 Y101.050 F7200.000
G1 X117.783 Y108.950 F1800.000 E122.90661
G1 X118.744 Y108.950 F7200.000
G1 X118.744 Y101.050 F1800.000 E123.22131
G1 X119.706 Y101.050 F7200.000
G1 X119.706 Y108.950 F1800.000 E123.53600
G1 X120.668 Y108.950 F7200.000
G1 X120.668 Y101.050 F1800.000 E123.85070
G1 X121.629 Y101.050 F7200.000
G1 X121.629 Y108.950 F1800.000 E124.16540
G1 X122.591 Y108.950 F7200.000
G1 X122.591 Y101.050 F1800.000 E124.48010
G1 X123.553 Y101.050 F7200.000
G1 X123.553 Y108.950 F1800.000 E124.79479
G1 X124.515 Y108.950 F7200.000
G1 X124.515 Y101.050 F1800.000 E125.10949
G1 X125.476 Y101.050 F7200.000
G1 X125.476 Y108.950 F1800.000 E125.42419
G1 X126.438 Y108.950 F7200.000
G1 X126.438 Y101.050 F1800.000 E125.73888
G1 X127.400 Y101.050 F7200.000
G1 X127.400 Y108.950 F1800.000 E126.05358
G1 X128.361 Y108.950 F7200.000
G1 X128.361 Y101.050 F1800.000 E126.36828
G1 X129.323 Y101.050 F7200.000
G1 X129.323 Y108.950 F1800.000 E126.68298
G1 X130.285 Y108.950 F7200.000
G1 X130.285 Y101.050 F1800.000 E126.99767
G1 X131.247 Y101.050 F7200.000
G1 X131.247 Y108.950 F1800.000 E127.31237
G1 X132.208 Y108.950 F7200.000
G1 X132.208 Y101.050 F1800.000 E127.62707
G1 X133.170 Y101.050 F7200.000
G1 X133.170 Y108.950 F1800.000 E127.94176
G1 X134.132 Y108.950 F7200.000
G1 X134.132 Y101.050 F1800.000 E128.25646
G1 X135.093 Y101.050 F7200.000
G1 X135.093 Y108.950 F1800.000 E128.57116
G1 Z0.780 F7200.000
G1 X135.490 Y109.510
G1 X105.490 Y109.510 F1200.000 E129.74189
G1 X105.490 Y100.490 E130.09389
G1 X194.510 Y100.490 E133.56783
G1 X194.510 Y109.510 E133.91983
G1 X144.510 Y109.510 E135.87104
G1 X144.510 Y139.510 E137.04177
G1 X105.490 Y139.510 E138.56450
G1 X105.490 Y130.490 E138.91650
G1 X135.490 Y130.490 E140.08723
G1 X135.490 Y109.657 E140.90022
G1 X136.050 Y109.900 F7200.000
G1 X143.950 Y109.900 F1800.000 E141.21507
G1 X143.950 Y108.938 F7200.000
G1 X136.050 Y108.938 F1800.000 E141.52992
G1 X136.050 Y110.862 F7200.000
G1 X143.950 Y110.862 F1800.000 E141.84478
G1 X143.950 Y111.823 F7200.000
G1 X136.050 Y111.823 F1800.000 E142.15963
G1 X136.050 Y112.785 F7200.000
G1 X143.950 Y112.785 F1800.000 E142.47448
G1 X143.950 Y113.747 F7200.000
G1 X136.050 Y113.747 F1800.000 E142.78933
G1 X136.050 Y114.709 F7200.000
G1 X143.950 Y114.709 F1800.000 E143.10418
G1 X143.950 Y115.671 F7200.000
G1 X136.050 Y115.671 F1800.000 E143.41904
G1 X136.050 Y116.633 F7200.000
G1 X143.950 Y116.633 F1800.000 E143.73389
G1 X143.950 Y117.595 F7200.000
G1 X136.050 Y117.595 F1800.000 E144.04874
G1 X136.050 Y118.557 F7200.000
G1 X143.950 Y118.557 F1800.000 E144.36359
G1 X143.950 Y119.519 F7200.000
G1 X136.050 Y119.519 F1800.000 E144.67844
G1 X136.050 Y120.481 F7200.000
G1 X143.950 Y120.481 F1800.000 E144.99330
G1 X143.950 Y121.443 F7200.000
G1 X136.050 Y121.443 F1800.000 E145.30815
G1 X136.050 Y122.405 F7200.000
G1 X143.950 Y122.405 F1800.000 E145.62300
G1 X143.950 Y123.367 F7200.000
G1 X136.050 Y123.367 F1800.000 E145.93785
G1 X136.050 Y124.329 F7200.000
G1 X143.950 Y124.329 F1800.000 E146.25270
G1 X143.950 Y125.291 F7200.000
G1 X136.050 Y125.291 F1800.000 E146.56756
G1 X136.050 Y126.253 F7200.000
G1 X143.950 Y126.253 F1800.000 E146.88241
G1 X143.950 Y127.215 F7200.000
G1 X136.050 Y127.215 F1800.000 E147.19726
G1 X136.050 Y128.177 F7200.000
G1 X143.950 Y128.177 F1800.000 E147.51211
G1 X143.950 Y129.138 F7200.000
G1 X136.050 Y129.138 F1800.000 E147.82696
G1 X136.050 Y130.100 F7200.000
G1 X143.950 Y130.100 F1800.000 E148.14182
G1 X143.950 Y131.062 F7200.000
G1 X136.050 Y131.062 F1800.000 E148.45667
G1 X143.950 Y132.024 F7200.000
G1 X106.050 Y132.024 F1800.000 E149.96718
G1 X106.050 Y132.986 F7200.000
G1 X143.950 Y132.986 F1800.000 E151.47770
G1 X143.950 Y133.948 F7200.000
G1 X106.050 Y133.948 F1800.000 E152.98822
