; generated by Slic3r 0.7.1 on 2014-01-11 at 09:21:52

; layer_height = 0.26
; perimeters = 1
; solid_layers = 3
; fill_density = 1
; nozzle_diameter = 0.7
; filament_diameter = 2.8
; extrusion_multiplier = 1
; perimeter_speed = 20
; infill_speed = 20
; travel_speed = 160
; extrusion_width_ratio = 0
; scale = 1
; single wall width = 0.98mm

G28 ; home all axes
G90 ; use absolute coordinates
G21 ; set units to millimeters
G92 E0 ; reset extrusion distance
M82 ; use absolute distances for extrusion
M107
G1 Z0.260 F9600.000
G1 X151.250 Y91.470
G1
G1 X151.700 Y91.040 F720.000 E0.02429
G1 X159.340 Y85.170 E0.40027
G1 X159.870 Y84.840 E0.42464
G1 X169.060 Y81.000 E0.81332
G1 X169.660 Y80.830 E0.83766
G1 X169.970 Y80.760 E0.85006
G1 X179.530 Y79.510 E1.22631
G1 X179.840 Y79.490 E1.23843
G1 X180.160 Y79.490 E1.25092
G1 X190.020 Y80.760 E1.63888
G1 X190.930 Y81.000 E1.67560
G1 X199.840 Y84.700 E2.05210
G1 X200.120 Y84.840 E2.06431
G1 X200.910 Y85.350 E2.10101
G1 X208.290 Y91.040 E2.46467
G1 X208.740 Y91.470 E2.48896
G1 X209.150 Y91.940 E2.51330
G1 X214.820 Y99.340 E2.87710
G1 X215.150 Y99.870 E2.90147
G1 X218.990 Y109.060 E3.29015
G1 X219.160 Y109.660 E3.31448
G1 X219.230 Y109.970 E3.32689
G1 X220.480 Y119.530 E3.70313
G1 X220.500 Y119.840 E3.71526
G1 X220.500 Y120.160 E3.72775
G1 X219.230 Y130.020 E4.11570
G1 X218.990 Y130.930 E4.15243
G1 X215.290 Y139.840 E4.52892
G1 X215.150 Y140.120 E4.54114
G1 X214.640 Y140.910 E4.57784
G1 X208.950 Y148.290 E4.94150
G1 X208.520 Y148.740 E4.96579
G1 X208.050 Y149.150 E4.99013
G1 X200.650 Y154.820 E5.35393
G1 X200.120 Y155.150 E5.37829
G1 X190.930 Y158.990 E5.76698
G1 X190.330 Y159.160 E5.79131
G1 X190.020 Y159.230 E5.80371
G1 X180.470 Y160.480 E6.17957
G1 X180.160 Y160.500 E6.19170
G1 X179.840 Y160.500 E6.20419
G1 X169.970 Y159.230 E6.59253
G1 X169.060 Y158.990 E6.62926
G1 X160.150 Y155.290 E7.00575
G1 X159.870 Y155.150 E7.01797
G1 X159.080 Y154.640 E7.05466
G1 X151.700 Y148.950 E7.41832
G1 X151.250 Y148.520 E7.44261
G1 X150.840 Y148.050 E7.46695
G1 X145.170 Y140.650 E7.83076
G1 X144.840 Y140.120 E7.85512
G1 X141.000 Y130.930 E8.24380
G1 X140.830 Y130.330 E8.26814
G1 X140.760 Y130.020 E8.28054
G1 X139.510 Y120.470 E8.65640
G1 X139.490 Y120.160 E8.66852
G1 X139.490 Y119.840 E8.68101
G1 X140.760 Y109.970 E9.06936
G1 X141.000 Y109.060 E9.10608
G1 X144.700 Y100.150 E9.48258
G1 X144.840 Y99.870 E9.49480
G1 X145.350 Y99.080 E9.53149
G1 X151.040 Y91.700 E9.89515
G1 X151.151 Y91.579 E9.90157
G1 X155.601 Y95.601 F9600.000
G1 X162.747 Y90.117 F720.000 E10.25309
G1 X171.069 Y86.670 E10.60462
G1 X180.000 Y85.494 E10.95614
G1 X188.931 Y86.670 E11.30766
G1 X197.253 Y90.117 E11.65919
G1 X204.399 Y95.601 E12.01071
G1 X209.883 Y102.747 E12.36223
G1 X213.330 Y111.069 E12.71376
G1 X214.506 Y120.000 E13.06528
G1 X213.330 Y128.931 E13.41680
G1 X209.883 Y137.253 E13.76833
G1 X204.399 Y144.399 E14.11985
G1 X197.253 Y149.883 E14.47137
G1 X188.931 Y153.330 E14.82290
G1 X180.000 Y154.506 E15.17442
G1 X171.069 Y153.330 E15.52595
G1 X162.747 Y149.883 E15.87747
G1 X155.601 Y144.399 E16.22899
G1 X150.117 Y137.253 E16.58052
G1 X146.670 Y128.931 E16.93204
G1 X145.494 Y120.000 E17.28356
G1 X146.670 Y111.069 E17.63509
G1 X150.117 Y102.747 E17.98661
G1 X155.511 Y95.717 E18.33240
G1 X180.497 Y119.545 F9600.000
G1 X180.479 Y119.521 F900.000 E18.33358
G1 X180.339 Y119.413 E18.34057
G1 X180.175 Y119.346 E18.34756
G1 X180.000 Y119.323 E18.35456
G1 X179.825 Y119.346 E18.36155
G1 X179.661 Y119.413 E18.36854
G1 X179.521 Y119.521 E18.37554
G1 X179.413 Y119.661 E18.38253
G1 X179.346 Y119.825 E18.38953
G1 X179.323 Y120.000 E18.39652
G1 X179.346 Y120.175 E18.40352
G1 X179.413 Y120.339 E18.41051
G1 X179.521 Y120.479 E18.41750
G1 X179.661 Y120.587 E18.42450
G1 X179.825 Y120.654 E18.43149
G1 X180.000 Y120.677 E18.43849
G1 X180.175 Y120.654 E18.44548
G1 X180.339 Y120.587 E18.45247
G1 X180.479 Y120.479 E18.45947
G1 X180.586 Y120.339 E18.46646
G1 X180.654 Y120.175 E18.47346
G1 X180.677 Y120.000 E18.48045
G1 X180.654 Y119.825 E18.48744
G1 X180.586 Y119.661 E18.49444
G1 X181.334 Y119.061 F9600.000
G1 X181.162 Y118.838 F900.000 E18.50560
G1 X180.822 Y118.576 E18.52258
G1 X180.426 Y118.412 E18.53955
G1 X180.000 Y118.356 E18.55653
G1 X179.574 Y118.412 E18.57351
G1 X179.178 Y118.576 E18.59049
G1 X178.838 Y118.838 E18.60747
G1 X178.576 Y119.178 E18.62444
G1 X178.412 Y119.574 E18.64142
G1 X178.356 Y120.000 E18.65840
G1 X178.412 Y120.426 E18.67538
G1 X178.576 Y120.822 E18.69235
G1 X178.838 Y121.162 E18.70933
G1 X179.178 Y121.424 E18.72631
G1 X179.574 Y121.588 E18.74328
G1 X180.000 Y121.644 E18.76026
G1 X180.426 Y121.588 E18.77724
G1 X180.822 Y121.424 E18.79422
G1 X181.162 Y121.162 E18.81119
G1 X181.424 Y120.822 E18.82817
G1 X181.588 Y120.425 E18.84515
G1 X181.644 Y120.000 E18.86213
G1 X181.588 Y119.575 E18.87910
G1 X181.424 Y119.178 E18.89608
G1 X182.171 Y118.578 F9600.000
G1 X181.846 Y118.154 F900.000 E18.91723
G1 X181.305 Y117.739 E18.94419
G1 X180.676 Y117.478 E18.97115
G1 X180.000 Y117.389 E18.99811
G1 X179.324 Y117.478 E19.02507
G1 X178.695 Y117.739 E19.05203
G1 X178.154 Y118.154 E19.07899
G1 X177.739 Y118.695 E19.10595
G1 X177.478 Y119.324 E19.13291
G1 X177.389 Y120.000 E19.15987
G1 X177.478 Y120.676 E19.18684
G1 X177.739 Y121.305 E19.21380
G1 X178.154 Y121.846 E19.24076
G1 X178.695 Y122.261 E19.26772
G1 X179.324 Y122.522 E19.29468
G1 X180.000 Y122.611 E19.32164
G1 X180.676 Y122.522 E19.34860
G1 X181.305 Y122.261 E19.37556
G1 X181.846 Y121.846 E19.40252
G1 X182.261 Y121.305 E19.42948
G1 X182.522 Y120.676 E19.45644
G1 X182.611 Y120.000 E19.48341
G1 X182.522 Y119.324 E19.51037
G1 X182.261 Y118.695 E19.53733
G1 X183.009 Y118.095 F9600.000
G1 X182.530 Y117.470 F900.000 E19.56846
G1 X181.789 Y116.902 E19.60540
G1 X180.926 Y116.545 E19.64234
G1 X180.000 Y116.423 E19.67929
G1 X179.074 Y116.545 E19.71624
G1 X178.211 Y116.902 E19.75318
G1 X177.470 Y117.470 E19.79012
G1 X176.902 Y118.211 E19.82707
G1 X176.545 Y119.074 E19.86401
G1 X176.423 Y120.000 E19.90095
G1 X176.545 Y120.926 E19.93790
G1 X176.902 Y121.789 E19.97484
G1 X177.470 Y122.530 E20.01179
G1 X178.211 Y123.098 E20.04873
G1 X179.074 Y123.455 E20.08567
G1 X180.000 Y123.577 E20.12262
G1 X180.926 Y123.455 E20.15957
G1 X181.789 Y123.098 E20.19651
G1 X182.530 Y122.530 E20.23345
G1 X183.098 Y121.789 E20.27040
G1 X183.455 Y120.926 E20.30734
G1 X183.577 Y120.000 E20.34429
G1 X183.455 Y119.074 E20.38123
G1 X183.098 Y118.211 E20.41817
G1 X183.846 Y117.611 F9600.000
G1 X183.213 Y116.787 F900.000 E20.45929
G1 X182.272 Y116.065 E20.50621
G1 X181.176 Y115.611 E20.55314
G1 X180.000 Y115.456 E20.60007
G1 X178.824 Y115.611 E20.64700
G1 X177.728 Y116.065 E20.69392
G1 X176.787 Y116.787 E20.74085
G1 X176.065 Y117.728 E20.78778
G1 X175.611 Y118.824 E20.83471
G1 X175.456 Y120.000 E20.88163
G1 X175.611 Y121.176 E20.92856
G1 X176.065 Y122.272 E20.97549
G1 X176.787 Y123.213 E21.02242
G1 X177.728 Y123.935 E21.06935
G1 X178.824 Y124.389 E21.11627
G1 X180.000 Y124.544 E21.16320
G1 X181.176 Y124.389 E21.21013
G1 X182.272 Y123.935 E21.25706
G1 X183.213 Y123.213 E21.30398
G1 X183.935 Y122.272 E21.35091
G1 X184.389 Y121.176 E21.39784
G1 X184.544 Y120.000 E21.44477
G1 X184.389 Y118.824 E21.49169
G1 X183.935 Y117.728 E21.53862
G1 X184.683 Y117.128 F9600.000
G1 X183.897 Y116.103 F900.000 E21.58972
G1 X182.755 Y115.227 E21.64663
G1 X181.426 Y114.677 E21.70354
G1 X180.000 Y114.489 E21.76045
G1 X178.574 Y114.677 E21.81736
G1 X177.245 Y115.227 E21.87427
G1 X176.103 Y116.103 E21.93118
G1 X175.227 Y117.245 E21.98810
G1 X174.677 Y118.574 E22.04500
G1 X174.489 Y120.000 E22.10192
G1 X174.677 Y121.426 E22.15883
G1 X175.227 Y122.755 E22.21574
G1 X176.103 Y123.897 E22.27265
G1 X177.245 Y124.773 E22.32956
G1 X178.574 Y125.323 E22.38647
G1 X180.000 Y125.511 E22.44338
G1 X181.426 Y125.323 E22.50030
G1 X182.755 Y124.773 E22.55720
G1 X183.897 Y123.897 E22.61411
G1 X184.772 Y122.755 E22.67103
G1 X185.323 Y121.426 E22.72794
G1 X185.511 Y120.000 E22.78485
G1 X185.323 Y118.574 E22.84176
G1 X184.772 Y117.245 E22.89867
G1 X185.520 Y116.645 F9600.000
G1 X184.580 Y115.420 F900.000 E22.95975
G1 X183.239 Y114.390 E23.02665
G1 X181.677 Y113.743 E23.09354
G1 X180.000 Y113.522 E23.16043
G1 X178.323 Y113.743 E23.22733
G1 X176.761 Y114.390 E23.29422
G1 X175.420 Y115.420 E23.36112
G1 X174.390 Y116.761 E23.42801
G1 X173.743 Y118.323 E23.49490
G1 X173.522 Y120.000 E23.56180
G1 X173.743 Y121.677 E23.62870
G1 X174.390 Y123.239 E23.69559
G1 X175.420 Y124.580 E23.76248
G1 X176.761 Y125.610 E23.82938
G1 X178.323 Y126.257 E23.89627
G1 X180.000 Y126.478 E23.96317
G1 X181.677 Y126.257 E24.03006
G1 X183.239 Y125.610 E24.09696
G1 X184.580 Y124.580 E24.16385
G1 X185.610 Y123.239 E24.23074
G1 X186.257 Y121.677 E24.29764
G1 X186.478 Y120.000 E24.36453
G1 X186.257 Y118.323 E24.43143
G1 X185.610 Y116.761 E24.49832
G1 X186.357 Y116.161 F9600.000
G1 X185.264 Y114.736 F900.000 E24.56939
G1 X183.722 Y113.553 E24.64626
G1 X181.927 Y112.809 E24.72314
G1 X180.000 Y112.556 E24.80002
G1 X178.073 Y112.809 E24.87690
G1 X176.278 Y113.553 E24.95377
G1 X174.736 Y114.736 E25.03065
G1 X173.553 Y116.278 E25.10753
G1 X172.809 Y118.073 E25.18441
G1 X172.556 Y120.000 E25.26129
G1 X172.809 Y121.927 E25.33817
G1 X173.553 Y123.722 E25.41504
G1 X174.736 Y125.264 E25.49192
G1 X176.278 Y126.447 E25.56880
G1 X178.073 Y127.191 E25.64567
G1 X180.000 Y127.444 E25.72255
G1 X181.927 Y127.191 E25.79943
G1 X183.722 Y126.447 E25.87631
G1 X185.264 Y125.264 E25.95319
G1 X186.447 Y123.722 E26.03006
G1 X187.191 Y121.927 E26.10694
G1 X187.444 Y120.000 E26.18382
G1 X187.191 Y118.073 E26.26070
G1 X186.447 Y116.278 E26.33758
G1 X187.195 Y115.678 F9600.000
G1 X185.947 Y114.053 F900.000 E26.41862
G1 X184.205 Y112.716 E26.50548
G1 X182.177 Y111.876 E26.59234
G1 X180.000 Y111.589 E26.67921
G1 X177.823 Y111.876 E26.76607
G1 X175.795 Y112.716 E26.85293
G1 X174.053 Y114.053 E26.93979
G1 X172.716 Y115.795 E27.02665
G1 X171.876 Y117.823 E27.11351
G1 X171.589 Y120.000 E27.20037
G1 X171.876 Y122.177 E27.28724
G1 X172.716 Y124.205 E27.37409
G1 X174.053 Y125.947 E27.46096
G1 X175.795 Y127.284 E27.54782
G1 X177.823 Y128.124 E27.63468
G1 X180.000 Y128.411 E27.72154
G1 X182.177 Y128.124 E27.80840
G1 X184.205 Y127.284 E27.89526
G1 X185.947 Y125.947 E27.98212
G1 X187.284 Y124.205 E28.06899
G1 X188.124 Y122.177 E28.15585
G1 X188.411 Y120.000 E28.24271
G1 X188.124 Y117.823 E28.32957
G1 X187.284 Y115.795 E28.41643
G1 X188.032 Y115.195 F9600.000
G1 X186.631 Y113.369 F900.000 E28.50746
G1 X184.689 Y111.879 E28.60430
G1 X182.427 Y110.942 E28.70115
G1 X180.000 Y110.622 E28.79799
G1 X177.573 Y110.942 E28.89484
G1 X175.311 Y111.879 E28.99168
G1 X173.369 Y113.369 E29.08853
G1 X171.879 Y115.311 E29.18537
G1 X170.942 Y117.573 E29.28222
G1 X170.622 Y120.000 E29.37906
G1 X170.942 Y122.427 E29.47591
G1 X171.879 Y124.689 E29.57275
G1 X173.369 Y126.631 E29.66960
G1 X175.311 Y128.121 E29.76644
G1 X177.573 Y129.058 E29.86328
G1 X180.000 Y129.378 E29.96013
G1 X182.427 Y129.058 E30.05698
G1 X184.689 Y128.121 E30.15382
G1 X186.631 Y126.631 E30.25066
G1 X188.121 Y124.689 E30.34751
G1 X189.058 Y122.427 E30.44435
G1 X189.378 Y120.000 E30.54120
G1 X189.058 Y117.573 E30.63804
G1 X188.121 Y115.311 E30.73489
G1 X188.869 Y114.711 F9600.000
G1 X187.315 Y112.685 F900.000 E30.83590
G1 X185.172 Y111.041 E30.94273
G1 X182.677 Y110.008 E31.04955
G1 X180.000 Y109.656 E31.15638
G1 X177.323 Y110.008 E31.26321
G1 X174.828 Y111.041 E31.37004
G1 X172.685 Y112.685 E31.47687
G1 X171.041 Y114.828 E31.58370
G1 X170.008 Y117.323 E31.69052
G1 X169.656 Y120.000 E31.79735
G1 X170.008 Y122.677 E31.90418
G1 X171.041 Y125.172 E32.01101
G1 X172.685 Y127.315 E32.11784
G1 X174.828 Y128.959 E32.22466
G1 X177.323 Y129.992 E32.33149
G1 X180.000 Y130.344 E32.43832
G1 X182.677 Y129.992 E32.54515
G1 X185.172 Y128.959 E32.65197
G1 X187.315 Y127.315 E32.75880
G1 X188.958 Y125.172 E32.86563
G1 X189.992 Y122.677 E32.97246
G1 X190.344 Y120.000 E33.07929
G1 X189.992 Y117.323 E33.18612
G1 X188.958 Y114.828 E33.29294
G1 X189.706 Y114.228 F9600.000
G1 X187.998 Y112.002 F900.000 E33.40394
G1 X185.656 Y110.204 E33.52075
G1 X182.928 Y109.074 E33.63756
G1 X180.000 Y108.689 E33.75437
G1 X177.072 Y109.074 E33.87119
G1 X174.344 Y110.204 E33.98800
G1 X172.002 Y112.002 E34.10481
G1 X170.204 Y114.344 E34.22162
G1 X169.074 Y117.072 E34.33843
G1 X168.689 Y120.000 E34.45524
G1 X169.074 Y122.928 E34.57206
G1 X170.204 Y125.656 E34.68886
G1 X172.002 Y127.998 E34.80568
G1 X174.344 Y129.796 E34.92249
G1 X177.072 Y130.926 E35.03930
G1 X180.000 Y131.311 E35.15611
G1 X182.928 Y130.926 E35.27292
G1 X185.656 Y129.796 E35.38973
G1 X187.998 Y127.998 E35.50654
G1 X189.796 Y125.656 E35.62336
G1 X190.926 Y122.928 E35.74017
G1 X191.311 Y120.000 E35.85698
G1 X190.926 Y117.072 E35.97379
G1 X189.796 Y114.344 E36.09060
G1 X190.543 Y113.744 F9600.000
G1 X188.682 Y111.318 F900.000 E36.21158
G1 X186.139 Y109.367 E36.33838
G1 X183.178 Y108.141 E36.46517
G1 X180.000 Y107.722 E36.59197
G1 X176.822 Y108.141 E36.71876
G1 X173.861 Y109.367 E36.84556
G1 X171.318 Y111.318 E36.97235
G1 X169.367 Y113.861 E37.09915
G1 X168.141 Y116.822 E37.22594
G1 X167.722 Y120.000 E37.35274
G1 X168.141 Y123.178 E37.47953
G1 X169.367 Y126.139 E37.60632
G1 X171.318 Y128.682 E37.73312
G1 X173.861 Y130.633 E37.85992
G1 X176.822 Y131.859 E37.98671
G1 X180.000 Y132.278 E38.11350
G1 X183.178 Y131.859 E38.24030
G1 X186.139 Y130.633 E38.36709
G1 X188.682 Y128.682 E38.49389
G1 X190.633 Y126.139 E38.62068
G1 X191.859 Y123.178 E38.74748
G1 X192.278 Y120.000 E38.87427
G1 X191.859 Y116.822 E39.00107
G1 X190.633 Y113.861 E39.12786
G1 X191.381 Y113.261 F9600.000
G1 X189.365 Y110.635 F900.000 E39.25883
G1 X186.622 Y108.530 E39.39560
G1 X183.428 Y107.207 E39.53238
G1 X180.000 Y106.755 E39.66916
G1 X176.572 Y107.207 E39.80594
G1 X173.378 Y108.530 E39.94272
G1 X170.635 Y110.635 E40.07950
G1 X168.530 Y113.378 E40.21627
G1 X167.207 Y116.572 E40.35305
G1 X166.755 Y120.000 E40.48983
G1 X167.207 Y123.428 E40.62661
G1 X168.530 Y126.622 E40.76339
G1 X170.635 Y129.365 E40.90016
G1 X173.378 Y131.470 E41.03694
G1 X176.572 Y132.793 E41.17372
G1 X180.000 Y133.245 E41.31050
G1 X183.428 Y132.793 E41.44728
G1 X186.622 Y131.470 E41.58406
G1 X189.365 Y129.365 E41.72083
G1 X191.470 Y126.622 E41.85761
G1 X192.793 Y123.428 E41.99439
G1 X193.245 Y120.000 E42.13117
G1 X192.793 Y116.572 E42.26795
G1 X191.470 Y113.378 E42.40473
G1 X192.218 Y112.778 F9600.000
G1 X190.049 Y109.951 F900.000 E42.54567
G1 X187.106 Y107.693 E42.69243
G1 X183.678 Y106.273 E42.83919
G1 X180.000 Y105.789 E42.98596
G1 X176.322 Y106.273 E43.13272
G1 X172.894 Y107.693 E43.27948
G1 X169.951 Y109.951 E43.42624
G1 X167.693 Y112.894 E43.57300
G1 X166.273 Y116.322 E43.71976
G1 X165.789 Y120.000 E43.86653
G1 X166.273 Y123.678 E44.01329
G1 X167.693 Y127.106 E44.16005
G1 X169.951 Y130.049 E44.30681
G1 X172.894 Y132.307 E44.45357
G1 X176.322 Y133.727 E44.60033
G1 X180.000 Y134.211 E44.74710
G1 X183.678 Y133.727 E44.89386
G1 X187.106 Y132.307 E45.04062
G1 X190.049 Y130.049 E45.18738
G1 X192.307 Y127.106 E45.33414
G1 X193.727 Y123.678 E45.48090
G1 X194.211 Y120.000 E45.62767
G1 X193.727 Y116.322 E45.77443
G1 X192.307 Y112.894 E45.92119
G1 X193.055 Y112.294 F9600.000
G1 X190.732 Y109.268 F900.000 E46.07212
G1 X187.589 Y106.856 E46.22886
G1 X183.928 Y105.339 E46.38561
G1 X180.000 Y104.822 E46.54235
G1 X176.072 Y105.339 E46.69910
G1 X172.411 Y106.856 E46.85584
G1 X169.268 Y109.268 E47.01259
G1 X166.856 Y112.411 E47.16933
G1 X165.339 Y116.072 E47.32608
G1 X164.822 Y120.000 E47.48282
G1 X165.339 Y123.928 E47.63957
G1 X166.856 Y127.589 E47.79631
G1 X169.268 Y130.732 E47.95306
G1 X172.411 Y133.144 E48.10981
G1 X176.072 Y134.661 E48.26655
G1 X180.000 Y135.178 E48.42329
G1 X183.928 Y134.661 E48.58004
G1 X187.589 Y133.144 E48.73678
G1 X190.732 Y130.732 E48.89353
G1 X193.144 Y127.589 E49.05027
G1 X194.661 Y123.928 E49.20702
G1 X195.178 Y120.000 E49.36376
G1 X194.661 Y116.072 E49.52051
G1 X193.144 Y112.411 E49.67725
G1 X193.892 Y111.811 F9600.000
G1 X191.416 Y108.584 F900.000 E49.83817
G1 X188.072 Y106.018 E50.00490
G1 X184.179 Y104.405 E50.17162
G1 X180.000 Y103.855 E50.33835
G1 X175.821 Y104.405 E50.50508
